X:1
T:Waltzing Matilda
C:Christina Macpherson / Banjo Paterson
M:4/4
L:1/4
Q:1/4=116
K:G
|: G A B G | A B d c | B A G A | B c d B |
w: Once a jol-ly swag-man came march-ing a-long | Down by the Bil-la-bong un-der the shade |
|: e d c B | c d e f | g f e d | c B A G |
w: He sang as he sat and wait-ed a-while | Till a jum-buck came down to drink at the stream |
|]
w: |
